X: 28713
T: My Darling Asleep
R: jig
M: 6/8
K: Dmajor
ag|:fdf ecA|BdB AFE|DFA def|gfg efg|
fdf ecA|BAG A2G|FAA def|1 gec dag:|2 gec d2A||
|:FAA BAG|FAA Bcd|F2A def|gfg efg|
fdf ecA|BAG A2G|FAA def|1 gec d2A:|2 gec dag||

